assets/Smirking face/Flat/smirking_face_flat.svg

<svg width="32" height="32" viewBox="0 0 32 32" fill="none" xmlns="http://www.w3.org/2000/svg">
<path d="M15.9989 29.9978C25.3333 29.9978 29.9978 23.7303 29.9978 15.9989C29.9978 8.26751 25.3333 2 15.9989 2C6.66443 2 2 8.26751 2 15.9989C2 23.7303 6.66443 29.9978 15.9989 29.9978Z" fill="#FFB02E"/>
<path d="M6 13.5C6 13.331 6.00932 13.1642 6.02746 13H10.0313L12.332 13.9227L14.4639 13H14.9725C14.9907 13.1642 15 13.331 15 13.5C15 15.9853 12.9853 18 10.5 18C8.01472 18 6 15.9853 6 13.5Z" fill="white"/>
<path d="M17 13.5C17 13.331 17.0093 13.1642 17.0275 13H21.0407L23.2816 13.7124L25.448 13H25.9725C25.9907 13.1642 26 13.331 26 13.5C26 15.9853 23.9853 18 21.5 18C19.0147 18 17 15.9853 17 13.5Z" fill="white"/>
<path d="M10 13.25C10 13.1655 10.0046 13.0821 10.0137 13H14.4863C14.4954 13.0821 14.5 13.1655 14.5 13.25C14.5 14.4945 13.4945 15.5 12.25 15.5C11.0055 15.49 10 14.4845 10 13.25Z" fill="#402A32"/>
<path d="M21 13.25C21 13.1655 21.0046 13.0821 21.0137 13H25.4863C25.4954 13.0821 25.5 13.1655 25.5 13.25C25.5 14.4945 24.4945 15.5 23.25 15.5C22.0055 15.49 21 14.4845 21 13.25Z" fill="#402A32"/>
<path d="M8.06915 7.98761C7.47625 8.55049 7.11769 9.22774 6.97423 9.65811C6.88691 9.92009 6.60375 10.0617 6.34178 9.97434C6.07981 9.88702 5.93823 9.60386 6.02555 9.34189C6.21542 8.77226 6.65687 7.94951 7.38064 7.26239C8.1129 6.5672 9.1478 6 10.4999 6C10.776 6 10.9999 6.22386 10.9999 6.5C10.9999 6.77614 10.776 7 10.4999 7C9.45198 7 8.65355 7.4328 8.06915 7.98761Z" fill="#402A32"/>
<path d="M23.9309 7.98761C24.5238 8.55049 24.8823 9.22774 25.0258 9.65811C25.1131 9.92009 25.3963 10.0617 25.6582 9.97434C25.9202 9.88702 26.0618 9.60386 25.9745 9.34189C25.7846 8.77226 25.3431 7.94951 24.6194 7.26239C23.8871 6.5672 22.8522 6 21.5001 6C21.224 6 21.0001 6.22386 21.0001 6.5C21.0001 6.77614 21.224 7 21.5001 7C22.548 7 23.3465 7.4328 23.9309 7.98761Z" fill="#402A32"/>
<path d="M23.9466 21.2622C24.1246 20.7393 23.845 20.1713 23.3222 19.9933C22.7993 19.8153 22.2313 20.0949 22.0533 20.6178C21.1017 23.4135 18.0618 24.9046 15.2647 23.9442C14.7424 23.7648 14.1735 24.0429 13.9942 24.5652C13.8148 25.0876 14.0929 25.6564 14.6152 25.8358C18.4581 27.1553 22.6382 25.1065 23.9466 21.2622Z" fill="#402A32"/>
</svg>

<svg xmlns="http://www.w3.org/2000/svg" width="32" height="32" fill="none"><path fill="#FFB02E" d="M15.999 29.998c9.334 0 13.999-6.268 13.999-14 0-7.73-4.665-13.998-14-13.998C6.665 2 2 8.268 2 15.999c0 7.731 4.664 13.999 13.999 13.999Z"/><path fill="#fff" d="M6 13.5c0-.169.01-.336.027-.5h4.004l2.301.923L14.464 13h.508A4.5 4.5 0 1 1 6 13.5ZM17 13.5c0-.169.01-.336.027-.5h4.014l2.24.712L25.449 13h.524a4.5 4.5 0 1 1-8.973.5Z"/><path fill="#402A32" d="M10 13.25c0-.085.005-.168.014-.25h4.472a2.248 2.248 0 0 1-2.236 2.5A2.26 2.26 0 0 1 10 13.25ZM21 13.25c0-.085.005-.168.014-.25h4.472a2.248 2.248 0 0 1-2.236 2.5A2.26 2.26 0 0 1 21 13.25ZM8.07 7.988c-.594.562-.952 1.24-1.096 1.67a.5.5 0 1 1-.948-.316c.19-.57.63-1.392 1.355-2.08C8.113 6.567 9.148 6 10.5 6a.5.5 0 0 1 0 1c-1.048 0-1.846.433-2.43.988ZM23.93 7.988c.594.562.952 1.24 1.096 1.67a.5.5 0 1 0 .948-.316c-.19-.57-.63-1.392-1.355-2.08C23.887 6.567 22.852 6 21.5 6a.5.5 0 0 0 0 1c1.048 0 1.846.433 2.43.988ZM23.947 21.262a1 1 0 1 0-1.894-.644 5.337 5.337 0 0 1-6.788 3.326 1 1 0 1 0-.65 1.892 7.337 7.337 0 0 0 9.332-4.574Z"/></svg>
